icons/animal_cow_fill.svg

<svg width="48" height="48" viewBox="0 0 48 48" fill="none" xmlns="http://www.w3.org/2000/svg">
<path fill-rule="evenodd" clip-rule="evenodd" d="M22 29H27C27 29.3934 27.0545 29.7762 27.1576 30.1433C26.6985 30.3311 26.4786 30.8555 26.6664 31.3146L26.705 31.4089C26.9141 31.9201 27.498 32.165 28.0092 31.9558L28.1206 31.9103C28.4666 32.3125 28.8824 32.6701 29.3533 32.9708C29.0918 33.4573 29.2707 34.0702 29.7572 34.3317C30.2436 34.5932 30.8499 34.4108 31.1114 33.9243L31.1945 33.7697C31.7643 33.9193 32.3709 34 33 34C33.0729 34 33.1456 33.9989 33.2179 33.9968L33.244 34.1319C33.3489 34.6741 33.8735 35.0286 34.4157 34.9237C34.958 34.8189 35.3125 34.2943 35.2076 33.752L35.1892 33.6567C36.0956 33.3606 36.8946 32.886 37.5237 32.2847L37.8345 36.0137C37.361 36.0925 37 36.5041 37 37C37 37.5523 37.4477 38 38 38H41V23.014L41 23V20C41 18.5792 40.5245 17.2738 39.7297 16.246C40.3549 16.4138 40.7917 16.6591 41.1002 16.9555C41.6574 17.4909 42 18.3922 42 20L42.3871 25.4195C42.1516 25.7854 42 26.3573 42 27C42 28.1046 42.4477 29 43 29C43.5523 29 44 28.1046 44 27C44 26.3573 43.8484 25.7854 43.6129 25.4195L44 20C44 18.1657 43.6172 16.6004 42.4859 15.5133C41.3691 14.4404 39.73 14.0358 37.7133 14.0018C37.6373 14.0005 35.5563 14 35.5 14V14.0068C35.408 14.0023 35.3154 14 35.2222 14L20.5 14C18.5657 14 17.105 13.7124 15.8792 13.3319C15.8287 13.2623 15.7781 13.1937 15.7274 13.1262C16.3972 12.9551 17.0719 12.6836 17.5565 12.3267C18.8261 11.3917 19.564 9.51331 17.9386 9.71926C17.4662 9.77913 17.1245 9.79097 16.8464 9.80061C16.1676 9.82413 15.8669 9.83455 14.9664 10.4978C14.5994 10.768 14.2777 11.0577 14.0147 11.3452C12.6165 10.3041 10.754 9.83879 7.5 10C7.22386 10 7 10.2239 7 10.5C7 10.7761 7.22386 11 7.5 11H9.23722C9.5226 11.184 9.76775 11.3559 9.98391 11.5202L6.40002 16H6.18808C4.84835 16 3.88746 17.2915 4.27243 18.5747L4.57243 19.5747C4.82622 20.4207 5.60486 21 6.48808 21H9.84965C10.2723 21 10.6842 21.1339 11.026 21.3826L13.2161 22.9753C13.2824 23.0235 13.3501 23.067 13.419 23.1058C14.9863 27.1444 16.6384 30.2908 18.4895 31.8736L18.8345 36.0137C18.361 36.0925 18 36.5041 18 37C18 37.5523 18.4477 38 19 38H22V29ZM31.8108 29H29C29 30.3309 30.434 32 33 32C33.9514 32 34.7471 31.7706 35.3719 31.414C33.9422 30.844 32.8335 29.9963 31.8108 29Z" fill="black"/>
</svg>

<svg
  xmlns="http://www.w3.org/2000/svg"
  width="24"
  height="24"
  viewBox="0 0 24 24"
  fill="none"
  stroke="currentColor"
  stroke-width="2"
  stroke-linecap="round"
  stroke-linejoin="round"
>
  <path
    fill-rule="evenodd"
    d="M22 29h5q.002.591.158 1.143a.9.9 0 0 0-.492 1.172l.039.094a1 1 0 0 0 1.304.547l.112-.046c.346.402.761.76 1.232 1.06-.261.487-.082 1.1.404 1.362a1 1 0 0 0 1.354-.408l.084-.154a7.1 7.1 0 0 0 2.023.227l.026.135a1 1 0 0 0 1.964-.38l-.019-.095a6.1 6.1 0 0 0 2.335-1.372l.31 3.729A1 1 0 0 0 38 38h3V20a6.12 6.12 0 0 0-1.27-3.754c.625.168 1.062.413 1.37.71.557.535.9 1.436.9 3.044l.387 5.42c-.235.365-.387.937-.387 1.58 0 1.105.448 2 1 2s1-.895 1-2c0-.643-.152-1.215-.387-1.58L44 20c0-1.834-.383-3.4-1.514-4.487-1.117-1.073-2.756-1.477-4.773-1.511C37.637 14 35.556 14 35.5 14v.007a6 6 0 0 0-.278-.007H20.5c-1.934 0-3.395-.288-4.62-.668l-.153-.206c.67-.17 1.345-.442 1.83-.8 1.27-.934 2.007-2.813.382-2.607-.473.06-.814.072-1.093.082-.678.023-.98.034-1.88.697a6.6 6.6 0 0 0-.951.847C12.616 10.305 10.754 9.84 7.5 10a.5.5 0 0 0 0 1h1.737c.286.184.53.356.747.52L6.4 16h-.212a2 2 0 0 0-1.916 2.575l.3 1A2 2 0 0 0 6.488 21H9.85a2 2 0 0 1 1.176.383l2.19 1.592q.1.072.203.13c1.567 4.04 3.22 7.186 5.07 8.769l.345 4.14A1 1 0 0 0 19 38h3zm9.81 0H29c0 1.33 1.434 3 4 3 .951 0 1.747-.23 2.372-.586-1.43-.57-2.538-1.418-3.561-2.414"
    clip-rule="evenodd"
  />
</svg>
